public/assets/img/euro.svg

<svg width="36" height="36" viewBox="0 0 36 36" fill="none" xmlns="http://www.w3.org/2000/svg">
<rect x="3" y="3" width="30" height="30" rx="15" fill="#00BBFF"/>
<mask id="mask0_1746_2424" style="mask-type:alpha" maskUnits="userSpaceOnUse" x="3" y="3" width="30" height="30">
<rect x="3" y="3" width="30" height="30" rx="15" fill="white"/>
</mask>
<g mask="url(#mask0_1746_2424)">
<path d="M9.77563 14.73H11.7856C12.0856 14.01 12.4756 13.37 12.9556 12.81C13.4356 12.23 13.9856 11.75 14.6056 11.37C15.2456 10.97 15.9256 10.67 16.6456 10.47C17.3856 10.25 18.1556 10.14 18.9556 10.14C19.9156 10.14 20.8056 10.28 21.6256 10.56C22.4456 10.84 23.1656 11.23 23.7856 11.73C24.4256 12.23 24.9456 12.83 25.3456 13.53C25.7456 14.23 26.0156 15 26.1556 15.84L22.7956 16.62C22.7156 16.18 22.5856 15.77 22.4056 15.39C22.2256 14.99 21.9856 14.64 21.6856 14.34C21.3856 14.04 21.0056 13.81 20.5456 13.65C20.1056 13.47 19.5756 13.38 18.9556 13.38C18.3156 13.38 17.7256 13.5 17.1856 13.74C16.6656 13.98 16.2056 14.31 15.8056 14.73H19.0156V17.61H14.6356V18.51H19.0156V21.39H15.8356C16.6556 22.21 17.7156 22.62 19.0156 22.62C19.6356 22.62 20.1656 22.53 20.6056 22.35C21.0456 22.15 21.4156 21.9 21.7156 21.6C22.0156 21.3 22.2556 20.96 22.4356 20.58C22.6156 20.18 22.7556 19.78 22.8556 19.38L26.2156 20.16C26.0556 21 25.7656 21.77 25.3456 22.47C24.9456 23.17 24.4256 23.77 23.7856 24.27C23.1656 24.77 22.4356 25.16 21.5956 25.44C20.7756 25.72 19.8756 25.86 18.8956 25.86C17.2956 25.86 15.8556 25.48 14.5756 24.72C13.2956 23.94 12.3656 22.83 11.7856 21.39H9.77563V18.51H11.2156V17.61H9.77563V14.73Z" fill="white"/>
</g>
</svg>

<svg width="36" height="36" fill="none" xmlns="http://www.w3.org/2000/svg"><rect x="3" y="3" width="30" height="30" rx="15" fill="#0BF"/><mask id="a" style="mask-type:alpha" maskUnits="userSpaceOnUse" x="3" y="3" width="30" height="30"><rect x="3" y="3" width="30" height="30" rx="15" fill="#fff"/></mask><g mask="url(#a)"><path d="M9.776 14.73h2.01c.3-.72.69-1.36 1.17-1.92.48-.58 1.03-1.06 1.65-1.44.64-.4 1.32-.7 2.04-.9.74-.22 1.51-.33 2.31-.33.96 0 1.85.14 2.67.42.82.28 1.54.67 2.16 1.17.64.5 1.16 1.1 1.56 1.8.4.7.67 1.47.81 2.31l-3.36.78c-.08-.44-.21-.85-.39-1.23-.18-.4-.42-.75-.72-1.05-.3-.3-.68-.53-1.14-.69-.44-.18-.97-.27-1.59-.27-.64 0-1.23.12-1.77.36-.52.24-.98.57-1.38.99h3.21v2.88h-4.38v.9h4.38v2.88h-3.18c.82.82 1.88 1.23 3.18 1.23.62 0 1.15-.09 1.59-.27.44-.2.81-.45 1.11-.75.3-.3.54-.64.72-1.02.18-.4.32-.8.42-1.2l3.36.78c-.16.84-.45 1.61-.87 2.31-.4.7-.92 1.3-1.56 1.8-.62.5-1.35.89-2.19 1.17-.82.28-1.72.42-2.7.42-1.6 0-3.04-.38-4.32-1.14-1.28-.78-2.21-1.89-2.79-3.33h-2.01v-2.88h1.44v-.9h-1.44v-2.88Z" fill="#fff"/></g></svg>
